svgs/naver_dictionary.svg

<svg width="192" height="192" viewBox="0 0 192 192" fill="none" xmlns="http://www.w3.org/2000/svg"><path d="M38.675 99.799a3.54 3.54 0 0 0-3.51 3.068c-.235 1.712-.53 4.013-.708 5.016a2.37 2.37 0 0 1-2.333 1.947h-4.51a5.318 5.318 0 0 0-5.314 5.134 180.844 180.844 0 0 0-.137 4.398c-.009.645.341 1.033.983 1.098 1.042.104 2.822.255 4.82.406l3.564.218a2.145 2.145 0 0 1 2.004 2.349c-.094 1.94-.279 3.127-.355 5.309l-.02.613a6 6 0 0 1-3.06 5.024l-.422.237c-13.809 7.849-17.94 22.484-8.793 31.572 3.6 3.6 7.141 5.016 12.511 5.016 15.226 0 27.559-9.678 32.693-25.611 1.24-3.836 1.357-3.955 2.892-3.601 10.209 2.538 10.799 15.58.885 20.714-1.948 1.003-3.836 1.947-4.249 2.065-.531.177-.472 1.417.236 5.253.374 1.757.724 3.348.946 4.308.145.629.563.957 1.187.793.728-.19 1.796-.532 2.942-.97 6.846-2.479 11.98-6.964 14.871-12.983 1.653-3.423 1.83-4.426 1.83-9.147 0-4.485-.236-5.843-1.534-8.557-3.01-6.433-8.616-10.504-17.94-13.101-3.895-1.062-6.374-1.298-14.281-1.298l-5.724-.035a3.92 3.92 0 0 1-3.895-3.919 4.077 4.077 0 0 1 3.891-4.073l5.137-.235c8.439-.413 22.72-1.83 23.192-2.302.25-.249-.51-7.137-.966-9.53-.103-.54-.487-.845-1.036-.823-.988.04-2.746.199-4.666.439-2.833.354-9.56.885-14.871 1.062l-6.474.237a2.766 2.766 0 0 1-2.85-3.07c.236-1.77.59-4.071.767-5.134a1.555 1.555 0 0 0-1.52-1.888h-6.183Zm15.591 40.156a1.71 1.71 0 0 1 1.672 2.156c-.886 3.304-3.777 8.674-5.901 11.094-2.242 2.597-2.36 2.479-4.013-4.485-1.475-6.196-1.476-8.026-.118-8.38.53-.177 3.187-.295 5.843-.354l2.517-.031Zm-21.077 5.343c.493-.416.891-.218 1.042.409.217.899.546 2.349.875 3.957.531 2.597 1.476 5.902 2.066 7.436 1.18 3.246 1.003 3.481-3.304 3.481-3.6 0-5.902-1.298-6.729-3.835-1.003-2.951.06-5.607 3.66-9.207.937-.937 1.799-1.742 2.39-2.241Zm103.42-47.27a5.606 5.606 0 0 0-5.606 5.606v.295a5.901 5.901 0 0 1-5.902 5.901h-13.278a5.606 5.606 0 0 0-5.606 5.606v.65a4.957 4.957 0 0 0 4.898 4.957h.232a6 6 0 0 1 5.833 4.594l.073.304c1.711 6.787 4.366 12.983 8.143 18.767 2.479 3.717 3.069 5.015 2.597 5.664-2.125 2.538-12.747 8.439-19.533 10.859-2.302.767-4.013 1.77-4.013 2.183 0 .649 2.361 9.501 2.656 9.973.177.295 8.379-2.655 12.333-4.484 3.245-1.476 11.508-6.61 16.524-10.328.472-.295 2.183.65 4.956 2.715 2.361 1.771 6.67 4.485 9.561 6.019 5.842 3.069 14.812 6.433 15.402 5.784.397-.496 2.336-7.33 2.77-9.602.092-.482-.153-.85-.608-1.033a64.284 64.284 0 0 0-3.401-1.227c-6.963-2.479-19.946-9.855-20.064-11.448 0-.236 1.121-2.066 2.419-4.073 4.131-6.078 7.908-15.166 9.619-23.073.354-1.594.414-1.594 5.371-1.594a5.015 5.015 0 0 0 5.015-5.015v-.591a5.605 5.605 0 0 0-5.606-5.606h-13.278a5.902 5.902 0 0 1-5.901-5.902v-.295a5.606 5.606 0 0 0-5.606-5.606Zm.295 23.015c4.898 0 8.852.236 8.852.472 0 2.361-5.488 14.813-8.026 18.117-.885 1.181-.885 1.18-2.006-.295-2.951-3.777-7.672-14.459-7.672-17.232 0-1.003.649-1.062 8.852-1.062Zm5.429-92.533a4.957 4.957 0 0 0-4.957-4.986h-24.667a5.754 5.754 0 1 0 0 11.508h16.228c.762 0 1.333.699 1.18 1.446-.708 2.891-3.068 8.38-5.075 11.861-2.773 4.603-11.743 13.455-16.641 16.288a5.252 5.252 0 0 0-1.662 6.985l.162.283c1.507 2.637 4.843 3.594 7.448 2.031 2.157-1.293 4.606-2.853 6.326-4.224 12.983-10.328 21.009-25.612 21.658-41.191ZM47.465 17.83a6 6 0 0 0-5.713 3.923L31.3 50.08A3186.195 3186.195 0 0 0 20.84 79c-.743 2.086.804 4.275 3.018 4.275h3.192a6 6 0 0 0 5.647-3.974l1.909-5.32 1.78-4.902a6 6 0 0 1 5.64-3.95h18.203a6 6 0 0 1 5.655 3.992l1.829 5.154 1.928 5.116a6 6 0 0 0 5.615 3.884h3.251c2.21 0 3.75-2.197 2.994-4.275-.767-2.183-5.91-16.557-11.517-32.313l-8.956-24.834a6 6 0 0 0-5.644-3.964H51.63l-4.165-.059ZM48.902 35c.851-2.385 4.296-2.403 5.095 0l4.654 14c.683 2.056-.848 4.178-3.014 4.178H46.77c-2.167 0-3.683-2.14-2.95-4.178 1.681-4.67 3.413-9.325 5.082-14ZM162.87 21.46a5.459 5.459 0 0 0-5.459-5.46 5.754 5.754 0 0 0-5.754 5.754v57.685a5.606 5.606 0 0 0 5.606 5.606 5.459 5.459 0 0 0 5.459-5.459V61.72a6 6 0 0 1 6.32-5.991l.123.006 1.531-.077A5.585 5.585 0 0 0 176 50.08c0-2.96-2.4-5.36-5.36-5.36h-1.77a6 6 0 0 1-6-6V21.459Z" fill="#000"/></svg>

<?xml version="1.0" encoding="UTF-8" standalone="no"?><svg xmlns:android="http://schemas.android.com/apk/res/android" height="192" width="192" xmlns="http://www.w3.org/2000/svg">
  <path d="M38.67,99.8C36.9,99.8 35.4,101.11 35.17,102.87V102.87C34.93,104.58 34.63,106.88 34.46,107.88V107.88C34.25,109.01 33.27,109.83 32.12,109.83H28.32H27.61C24.75,109.83 22.4,112.1 22.3,114.96V114.96C22.23,116.78 22.18,118.39 22.16,119.36C22.15,120.01 22.5,120.39 23.15,120.46C24.19,120.56 25.97,120.71 27.97,120.87L31.53,121.08C32.74,121.16 33.65,122.22 33.53,123.43V123.43C33.44,125.37 33.26,126.56 33.18,128.74L33.16,129.35C33.09,131.45 31.93,133.35 30.1,134.38L29.68,134.62C15.87,142.46 11.74,157.1 20.88,166.19C24.48,169.79 28.03,171.2 33.4,171.2C48.62,171.2 60.95,161.53 66.09,145.59C67.33,141.76 67.45,141.64 68.98,141.99C79.19,144.53 79.78,157.57 69.86,162.71C67.92,163.71 66.03,164.65 65.62,164.77C65.08,164.95 65.14,166.19 65.85,170.02C66.23,171.78 66.58,173.37 66.8,174.33C66.94,174.96 67.36,175.29 67.98,175.13C68.71,174.93 69.78,174.59 70.93,174.15C77.77,171.68 82.91,167.19 85.8,161.17C87.45,157.75 87.63,156.75 87.63,152.02C87.63,147.54 87.39,146.18 86.09,143.47C83.08,137.04 77.48,132.96 68.15,130.37C64.26,129.3 61.78,129.07 53.87,129.07L48.15,129.03C45.99,129.02 44.25,127.27 44.25,125.11V125.11V125.11C44.25,122.93 45.97,121.14 48.15,121.04L53.28,120.81C61.72,120.39 76,118.98 76.47,118.5C76.72,118.26 75.96,111.37 75.51,108.97C75.41,108.43 75.02,108.13 74.47,108.15C73.48,108.19 71.73,108.35 69.81,108.59C66.97,108.94 60.25,109.48 54.94,109.65L48.46,109.89C46.77,109.95 45.42,108.5 45.61,106.82V106.82C45.85,105.05 46.2,102.75 46.38,101.69V101.69C46.59,100.72 45.85,99.8 44.86,99.8H41.19L38.67,99.8ZM54.27,139.96C55.4,139.94 56.23,141.01 55.94,142.11V142.11C55.05,145.41 52.16,150.79 50.04,153.21C47.79,155.8 47.68,155.68 46.02,148.72C44.55,142.52 44.55,140.69 45.91,140.34C46.44,140.16 49.09,140.04 51.75,139.99L54.27,139.96ZM33.19,145.3C33.68,144.88 34.08,145.08 34.23,145.71C34.45,146.61 34.78,148.06 35.11,149.66C35.64,152.26 36.58,155.57 37.17,157.1C38.35,160.35 38.18,160.58 33.87,160.58C30.27,160.58 27.97,159.28 27.14,156.75C26.14,153.79 27.2,151.14 30.8,147.54C31.74,146.6 32.6,145.8 33.19,145.3Z" fill="#000000"/>
  <path d="M136.61,98.03C133.51,98.03 131,100.54 131,103.63V103.93V103.93C131,107.19 128.36,109.83 125.1,109.83H118.61H111.82C108.73,109.83 106.22,112.34 106.22,115.44V115.44V116.09C106.22,118.8 108.4,121.01 111.11,121.04V121.04H111.35C114.12,121.04 116.53,122.94 117.18,125.64L117.25,125.94C118.96,132.73 121.62,138.92 125.4,144.71C127.88,148.43 128.46,149.72 127.99,150.37C125.87,152.91 115.25,158.81 108.46,161.23C106.16,162 104.45,163 104.45,163.41C104.45,164.06 106.81,172.91 107.1,173.39C107.28,173.68 115.48,170.73 119.44,168.9C122.68,167.43 130.94,162.29 135.96,158.57C136.43,158.28 138.14,159.23 140.92,161.29C143.28,163.06 147.59,165.77 150.48,167.31C156.32,170.38 165.29,173.74 165.88,173.09C166.28,172.6 168.21,165.76 168.65,163.49C168.74,163.01 168.5,162.64 168.04,162.46C167.3,162.16 166.04,161.7 164.64,161.23C157.68,158.75 144.69,151.38 144.58,149.78C144.58,149.55 145.7,147.72 146.99,145.71C151.13,139.63 154.9,130.54 156.61,122.64C156.97,121.04 157.03,121.04 161.99,121.04V121.04C164.76,121.04 167,118.8 167,116.03V115.44V115.44C167,112.34 164.49,109.83 161.39,109.83H154.61H148.12C144.86,109.83 142.21,107.19 142.21,103.93V103.93V103.63C142.21,100.54 139.71,98.03 136.61,98.03V98.03V98.03ZM136.9,121.04C141.8,121.04 145.76,121.28 145.76,121.51C145.76,123.88 140.27,136.33 137.73,139.63C136.85,140.81 136.85,140.81 135.72,139.34C132.77,135.56 128.05,124.88 128.05,122.11C128.05,121.1 128.7,121.04 136.9,121.04Z" fill="#000000"/>
  <path d="M142.33,28.51C142.35,25.76 140.13,23.52 137.38,23.52H124.66H112.71C109.53,23.52 106.96,26.1 106.96,29.28V29.28V29.28C106.96,32.46 109.53,35.03 112.71,35.03H118.46H128.94C129.7,35.03 130.27,35.73 130.12,36.48V36.48C129.41,39.37 127.05,44.86 125.04,48.34C122.27,52.94 113.3,61.79 108.4,64.63V64.63C106.09,66.15 105.37,69.21 106.74,71.61L106.9,71.89C108.41,74.53 111.74,75.49 114.35,73.93C116.51,72.63 118.96,71.07 120.68,69.7C133.66,59.37 141.68,44.09 142.33,28.51V28.51Z" fill="#000000"/>
  <path d="M47.47,17.83C44.92,17.79 42.63,19.37 41.75,21.75L31.3,50.08C26.84,62.22 22.9,73.22 20.84,79V79C20.1,81.09 21.64,83.27 23.86,83.27H25.52H27.05C29.58,83.27 31.84,81.68 32.7,79.3L34.6,73.98L36.39,69.08C37.25,66.71 39.5,65.13 42.03,65.13H51.19H60.23C62.77,65.13 65.03,66.73 65.88,69.12L67.71,74.27L69.64,79.39C70.52,81.73 72.76,83.27 75.25,83.27H76.86H78.51C80.72,83.27 82.26,81.08 81.5,79V79C80.73,76.82 75.59,62.44 69.98,46.69L61.03,21.85C60.17,19.47 57.91,17.89 55.38,17.89H51.63L47.47,17.83ZM48.9,35C49.75,32.62 53.2,32.6 54,35V35C55.55,39.67 57.1,44.33 58.65,49V49C59.33,51.06 57.8,53.18 55.64,53.18H51.19H46.77C44.6,53.18 43.09,51.04 43.82,49V49C45.5,44.33 47.23,39.67 48.9,35V35Z" fill="#000000"/>
  <path d="M162.87,21.46C162.87,18.44 160.43,16 157.41,16V16V16C154.23,16 151.66,18.58 151.66,21.75V50.52V79.44C151.66,82.54 154.17,85.05 157.26,85.05V85.05V85.05C160.28,85.05 162.72,82.6 162.72,79.59V70.44V61.72C162.72,58.28 165.61,55.55 169.04,55.73L169.16,55.74L170.7,55.66C173.67,55.51 176,53.06 176,50.08V50.08V50.08C176,47.12 173.6,44.72 170.64,44.72H169.16H168.87C165.56,44.72 162.87,42.03 162.87,38.72V30.56V21.46Z" fill="#000000"/>
</svg>
